nd.svg

<?xml version="1.0" encoding="UTF-8" standalone="no"?>
<!-- Created with Inkscape (http://www.inkscape.org/) -->

<svg
   xmlns:svg="http://www.w3.org/2000/svg"
   xmlns="http://www.w3.org/2000/svg"
   version="1.0"
   width="64.000999"
   height="64"
   viewBox="-862.001 864 64.000999 64"
   id="Layer_1"
   xml:space="preserve"><defs
   id="defs13" />
<g
   transform="translate(-861.501,864.5)"
   id="g3">
	<circle
   cx="31.565001"
   cy="31.288"
   r="29.013"
   id="circle5"
   style="fill:#ffffff" />
	<g
   id="g7">
		<path
   d="m 31.444,-0.5 c 8.952,0 16.532,3.105 22.743,9.315 6.207,6.172 9.314,13.731 9.314,22.685 0,8.954 -3.049,16.457 -9.145,22.514 C 47.918,60.338 40.28,63.5 31.443,63.5 22.794,63.5 15.29,60.357 8.929,54.07 2.644,47.786 -0.5,40.262 -0.5,31.501 -0.5,22.778 2.644,15.216 8.929,8.816 15.14,2.605 22.645,-0.5 31.444,-0.5 z m 0.116,5.772 c -7.275,0 -13.429,2.57 -18.458,7.715 -5.22,5.296 -7.829,11.467 -7.829,18.513 0,7.125 2.59,13.257 7.77,18.4 5.181,5.182 11.352,7.771 18.515,7.771 7.123,0 13.332,-2.608 18.627,-7.828 5.029,-4.876 7.543,-10.989 7.543,-18.343 0,-7.312 -2.553,-13.485 -7.656,-18.513 C 45.005,7.842 38.834,5.272 31.56,5.272 z m 12.057,18.684 v 5.486 H 20.36 v -5.486 h 23.257 z m 0,10.287 v 5.481 H 20.36 v -5.481 h 23.257 z"
   id="path9" />
	</g>
</g>
</svg>

<?xml version="1.0" encoding="utf-8"?>
<!-- Generator: Adobe Illustrator 13.0.2, SVG Export Plug-In . SVG Version: 6.00 Build 14948)  -->
<!DOCTYPE svg PUBLIC "-//W3C//DTD SVG 1.0//EN" "http://www.w3.org/TR/2001/REC-SVG-20010904/DTD/svg10.dtd">
<svg version="1.0" id="Layer_1" xmlns="http://www.w3.org/2000/svg" xmlns:xlink="http://www.w3.org/1999/xlink" x="0px" y="0px"
	 width="64px" height="64px" viewBox="-862.001 864 64 64" enable-background="new -862.001 864 64 64" xml:space="preserve">
<g>
	<circle fill="#FFFFFF" cx="31.565" cy="31.288" r="29.013"/>
	<g>
		<path d="M31.444-0.5c8.952,0,16.532,3.105,22.743,9.315c6.207,6.172,9.314,13.731,9.314,22.685c0,8.954-3.049,16.457-9.145,22.514
			C47.918,60.338,40.28,63.5,31.443,63.5c-8.649,0-16.153-3.143-22.514-9.43C2.644,47.786-0.5,40.262-0.5,31.501
			c0-8.723,3.144-16.285,9.429-22.685C15.14,2.605,22.645-0.5,31.444-0.5z M31.56,5.272c-7.275,0-13.429,2.57-18.458,7.715
			C7.882,18.283,5.273,24.454,5.273,31.5c0,7.125,2.59,13.257,7.77,18.4c5.181,5.182,11.352,7.771,18.515,7.771
			c7.123,0,13.332-2.608,18.627-7.828c5.029-4.876,7.543-10.989,7.543-18.343c0-7.312-2.553-13.485-7.656-18.513
			C45.005,7.842,38.834,5.272,31.56,5.272z M43.617,23.956v5.486H20.36v-5.486H43.617z M43.617,34.243v5.481H20.36v-5.481H43.617z"
			/>
	</g>
</g>
</svg>
